X: 7
T: No_105_Hinata_Dance_Song_(a).krn
N: Derived from No_105_Hinata_Dance_Song_(a).krn
%%abc-version 2.0
%%abcx-abcm2ps-target-version 5.9.1 (29 Sep 2008)
%%abc-creator hum2abc beta
%%abcx-conversion-date 2019/03/15 08:38:45
%%humdrum-veritas 3746067759
%%humdrum-veritas-data 2201961596
%%linebreak <none>
%%barnumbers 0
L: 1/8
M: 2/4
K: E clef=bass
[K:clef=bass][M:2/4]z2z3/ C/ | 
B,3/B,/ (C/B,3/) | 
B,G, (3:2:4G,G, z/ B,/ | 
B,3/B,/ (G,E,) | 
E,2(3:2:4E,E, z/ G,/ | 
(G,/E,)E,/B,,2 | 
B,,2(3:2:4B,,B,, z/ E,/ | 
E,3/E,/E,2 | 
E,2(3:2:4E,E, z/ G,/ | 
(G,/E,)E,/B,,2 | 
B,,2B,,B,, |]  



